lib/brands/icons/jb-intellij-idea.svg

<svg xmlns="http://www.w3.org/2000/svg" fill="none" aria-hidden="true" viewBox="0 0 48 48"><g id="jb-intellij-idea-Icon"><g id="Group"><path id="Vector" fill="url(#paint0_linear_94_16689)" d="M15.1123 34.0687L6.39355 27.2062L10.7248 19.1625L23.1561 24L15.1123 34.0687Z"/><path id="Vector_2" fill="url(#paint1_linear_94_16689)" d="M42.0001 15.6188L41.3251 36.4312L27.4876 42L19.1626 36.6L31.3126 24L26.0251 12.3L30.8063 6.5625L42.0001 15.6188Z"/><path id="Vector_3" fill="url(#paint2_linear_94_16689)" d="M41.9999 15.6188L31.0312 28.5562L26.0249 12.3L30.8062 6.5625L41.9999 15.6188Z"/><path id="Vector_4" fill="url(#paint3_linear_94_16689)" d="M23.325 35.8687L8.925 41.1L11.2313 33L14.2125 22.9875L6 20.2312L11.2313 6L22.4812 7.35L33.6187 20.0625L23.325 35.8687Z"/><path id="Vector_5" fill="black" d="M35.25 12.75H12.75V35.25H35.25V12.75Z"/><path id="Vector_6" fill="white" d="M14.8877 31.0312H23.3252V32.4375H14.8877V31.0312ZM20.9064 17.3625V15.675H16.2939V17.3625H17.5877V23.2688H16.2939V25.0125H20.9064V23.2688H19.6127V17.3625H20.9064ZM25.4064 25.125C24.7643 25.154 24.1253 25.0184 23.5502 24.7312C23.0797 24.4717 22.6603 24.1286 22.3127 23.7188L23.6064 22.2562C23.8401 22.5129 24.1046 22.7396 24.3939 22.9313C24.6662 23.0909 24.9786 23.169 25.2939 23.1562C25.6407 23.1828 25.978 23.0352 26.1939 22.7625C26.4545 22.427 26.5754 22.0038 26.5314 21.5813V15.5625H28.6127V21.6375C28.634 22.135 28.5576 22.6319 28.3877 23.1C28.2393 23.5749 27.9675 24.0019 27.6002 24.3375C26.9627 24.8108 26.1994 25.0848 25.4064 25.125Z"/></g></g><defs><linearGradient id="paint0_linear_94_16689" x1="6.39355" x2="23.1223" y1="26.6156" y2="26.6156" gradientUnits="userSpaceOnUse"><stop offset="0.26" stop-color="#F97A12"/><stop offset="0.46" stop-color="#B07B58"/><stop offset="0.72" stop-color="#577BAE"/><stop offset="0.91" stop-color="#1E7CE5"/><stop offset="1" stop-color="#087CFA"/></linearGradient><linearGradient id="paint1_linear_94_16689" x1="19.2413" x2="48.7855" y1="18.8025" y2="25.5902" gradientUnits="userSpaceOnUse"><stop stop-color="#F97A12"/><stop offset="0.07" stop-color="#CB7A3E"/><stop offset="0.15" stop-color="#9E7B6A"/><stop offset="0.24" stop-color="#757B91"/><stop offset="0.33" stop-color="#537BB1"/><stop offset="0.43" stop-color="#387CCC"/><stop offset="0.54" stop-color="#237CE0"/><stop offset="0.66" stop-color="#147CEF"/><stop offset="0.79" stop-color="#0B7CF7"/><stop offset="1" stop-color="#087CFA"/></linearGradient><linearGradient id="paint2_linear_94_16689" x1="38.5124" x2="25.93" y1="28.0613" y2="8.21489" gradientUnits="userSpaceOnUse"><stop stop-color="#FE315D"/><stop offset="0.08" stop-color="#CB417E"/><stop offset="0.16" stop-color="#9E4E9B"/><stop offset="0.25" stop-color="#755BB4"/><stop offset="0.34" stop-color="#5365CA"/><stop offset="0.44" stop-color="#386DDB"/><stop offset="0.54" stop-color="#2374E9"/><stop offset="0.66" stop-color="#1478F3"/><stop offset="0.79" stop-color="#0B7BF8"/><stop offset="1" stop-color="#087CFA"/></linearGradient><linearGradient id="paint3_linear_94_16689" x1="11.5238" x2="41.8198" y1="14.4544" y2="45.4852" gradientUnits="userSpaceOnUse"><stop stop-color="#FE315D"/><stop offset="0.04" stop-color="#F63462"/><stop offset="0.1" stop-color="#DF3A71"/><stop offset="0.17" stop-color="#C24383"/><stop offset="0.29" stop-color="#AD4A91"/><stop offset="0.55" stop-color="#755BB4"/><stop offset="0.92" stop-color="#1D76ED"/><stop offset="1" stop-color="#087CFA"/></linearGradient></defs></svg>

<svg xmlns="http://www.w3.org/2000/svg" fill="none" aria-hidden="true" viewBox="0 0 48 48"><path fill="url(#a)" d="m15.113 34.069-8.72-6.863 4.332-8.043L23.156 24l-8.043 10.069Z"/><path fill="url(#b)" d="m42 15.619-.675 20.812L27.487 42l-8.324-5.4L31.313 24l-5.288-11.7 4.781-5.738L42 15.62Z"/><path fill="url(#c)" d="M42 15.619 31.031 28.556 26.025 12.3l4.781-5.738L42 15.62Z"/><path fill="url(#d)" d="M23.325 35.869 8.925 41.1l2.306-8.1 2.982-10.012L6 20.23 11.231 6l11.25 1.35L33.62 20.063 23.325 35.868Z"/><path fill="#000" d="M35.25 12.75h-22.5v22.5h22.5v-22.5Z"/><path fill="#fff" d="M14.887 31.031h8.438v1.407h-8.438V31.03Zm6.02-13.668v-1.688h-4.613v1.688h1.293v5.906h-1.293v1.744h4.612v-1.744h-1.293v-5.906h1.293Zm4.5 7.762a3.774 3.774 0 0 1-1.857-.394c-.47-.26-.89-.602-1.238-1.012l1.294-1.463c.234.257.498.484.788.675.272.16.584.238.9.225.347.027.684-.12.9-.393.26-.336.381-.76.337-1.182v-6.018h2.082v6.074c.02.498-.056.995-.226 1.463-.148.475-.42.902-.787 1.237-.638.474-1.4.748-2.194.788Z"/><defs><linearGradient id="a" x1="6.394" x2="23.122" y1="26.616" y2="26.616" gradientUnits="userSpaceOnUse"><stop offset=".26" stop-color="#F97A12"/><stop offset=".46" stop-color="#B07B58"/><stop offset=".72" stop-color="#577BAE"/><stop offset=".91" stop-color="#1E7CE5"/><stop offset="1" stop-color="#087CFA"/></linearGradient><linearGradient id="b" x1="19.241" x2="48.785" y1="18.802" y2="25.59" gradientUnits="userSpaceOnUse"><stop stop-color="#F97A12"/><stop offset=".07" stop-color="#CB7A3E"/><stop offset=".15" stop-color="#9E7B6A"/><stop offset=".24" stop-color="#757B91"/><stop offset=".33" stop-color="#537BB1"/><stop offset=".43" stop-color="#387CCC"/><stop offset=".54" stop-color="#237CE0"/><stop offset=".66" stop-color="#147CEF"/><stop offset=".79" stop-color="#0B7CF7"/><stop offset="1" stop-color="#087CFA"/></linearGradient><linearGradient id="c" x1="38.513" x2="25.93" y1="28.061" y2="8.215" gradientUnits="userSpaceOnUse"><stop stop-color="#FE315D"/><stop offset=".08" stop-color="#CB417E"/><stop offset=".16" stop-color="#9E4E9B"/><stop offset=".25" stop-color="#755BB4"/><stop offset=".34" stop-color="#5365CA"/><stop offset=".44" stop-color="#386DDB"/><stop offset=".54" stop-color="#2374E9"/><stop offset=".66" stop-color="#1478F3"/><stop offset=".79" stop-color="#0B7BF8"/><stop offset="1" stop-color="#087CFA"/></linearGradient><linearGradient id="d" x1="11.524" x2="41.82" y1="14.454" y2="45.485" gradientUnits="userSpaceOnUse"><stop stop-color="#FE315D"/><stop offset=".04" stop-color="#F63462"/><stop offset=".1" stop-color="#DF3A71"/><stop offset=".17" stop-color="#C24383"/><stop offset=".29" stop-color="#AD4A91"/><stop offset=".55" stop-color="#755BB4"/><stop offset=".92" stop-color="#1D76ED"/><stop offset="1" stop-color="#087CFA"/></linearGradient></defs></svg>
